X:1
T:Alexander March
T:Alexander March
T:Piano Adventures 3A
T:Ludwig van Beethoven
T:arranged by Faber
C:Ludwig van Beethoven
Z:arranged by Faber
%%score { 1 | 2 } { 3 | 4 }
L:1/8
Q:1/4=152
M:4/4
K:F
V:1 treble nm="Primo" snm="P"
V:2 treble 
V:3 bass nm="Secondo" snm="S"
V:4 bass 
V:1
"^Briskly"!mf! .f2 (fg .f2) (fg | .f2) (fg .f2) .f2 | .g2 (ga .g2) (ga | .g2) (ga c'bag | %4
 .f2) (fg .f2) (fg | .f2) (fg .f2) .a2 |!<(! .g2 (ga .g2) .e2!<)! |!f! z4 !>!c'4 | %8
!mp! .f2 (fg .f2) (fg | .f2) (fg .f2) .f2 | .g2 (ga .g2) (ga | .g2) (ga c'bag | %12
!<(! .a2) (fa c'2 .b2)!<)! |!<(! .a2 (fa c'2 .b2)!<)! |!f! (bagf .g2) .e2 | %15
 !>!.f2 !>!.f2 !>!.f2 z2 |] %16
V:2
 .F2 FG .F2 FG | .F2 FG .F2 .F2 | .G2 GA .G2 GA | .G2 GA cBAG | .F2 FG .F2 FG | .F2 FG .F2 .A2 | %6
 .G2 GA .G2 z2 | !>!c4 z4 | .F2 .[Ac]2 .[Ac]2 z2 | .F2 .[Ac]2 .[Ac]2 z2 | .G2 .[Bc]2 .[Bc]2 z2 | %11
 .G2 .[Bc]2 .[Bc]2 z2 | .[FAc]2 z2 z4 | .[FAc]2 z4 z2 | z4 !tenuto!.[EBc]2 z2 | %15
 !>!.[FAc]2 !>!.[FAc]2 !>!.[FAc]2 z2 |] %16
V:3
 z2!p! .[F,A,C]2 z2!p!!p!!p! .[F,A,C]2 | z2!p!!p!!p! .[F,A,C]2 z2!p!!p!!p! .[F,A,C]2 | %2
 z2!p!!p!!p! .[E,B,C]2 z2!p!!p!!p! .[E,B,C]2 | z2!p!!p!!p! .[E,B,C]2 z2!p!!p!!p! .[E,B,C]2 | %4
 z2!p!!p!!p! .[F,A,C]2 z2!p!!p!!p! .[F,A,C]2 | z2!p!!p!!p! .[F,A,C]2 z2!p!!p!!p! .[F,A,C]2 | %6
!<(! z2 .[G,=B,]2 z4!<)! |!f! z4 !>![E,B,C]4 | %8
 z2!pp!!pp!!pp!!pp! .[F,A,C]2 z2!pp!!pp!!pp! .[F,A,C]2 | %9
 z2!pp!!pp!!pp! .[F,A,C]2 z2!pp!!pp!!pp! .[F,A,C]2 | %10
 z2!pp!!pp!!pp! .[E,B,C]2 z2!pp!!pp!!pp! .[E,B,C]2 | %11
 z2!pp!!pp!!pp! .[E,B,C]2 z2!pp!!pp!!pp! .[E,B,C]2 |!<(! z2 .[F,A,C]2 [E,C]4!<)! | %13
!<(! z2 .[F,A,C]2 [E,C]4!<)! |!mf! (G,F,B,A, .G,2) .G,2 | !>!.F,2 !>!.[F,A,C]2 !>!.[F,A,C]2 z2 |] %16
V:4
!mp! .F,,2 z2!mp! .C,,2 z2 |!mp! .F,,2 z2!mp! .C,,2 z2 |!mp! .G,,2 z2!mp! .C,,2 z2 | %3
!mp! .G,,2 z2!mp! .C,,2 z2 |!mp! .F,,2 z2!mp! .C,,2 z2 |!mp! .F,,2 z2!mp! .C,,2 z2 | %6
 .G,,2 z2 .G,,2 .=B,,2 | !>!C,4 z4 |!p! .F,,2 z2!p! .C,,2 z2 |!p! .F,,2 z2!p! .C,,2 z2 | %10
!p! .G,,2 z2!p! .C,,2 z2 |!p! .G,,2 z2!p! .C,,2 z2 | .F,,2 z2 C,,4 | .F,,2 z2 C,,4 | z4 C,,4 | %15
 !>!.F,,2 !>!.F,,2 !>!.F,,2 z2 |] %16

